X:6265
T:Star of the County Down, The
O:england
S:So long ago I can't remember
M:4/4
L:1/8
K:Em
B,D|E2 E2 E2 DE|G2 G2 A2 GA|B2 AG ED B,2|D6 B,D|
E2 E2 E2 DE|G2 G2 A2 GA|B2 AG E2 E2|E6|]
Bc|d2 B2 B2 AG|A2 A2 A2 GA|B2 AG ED B,2|d6 B,D|
E2 E2 E2 DE|G2 G2 A2 GA|B2 AG E2 E2|E6:|]


